X:1
T: Come now or Stay
C:
R:Jig
Q:180
K:D
M:6/8
L:1/16
FG|A2B2A2 d4f2|a2f2b2 a2f2d2|efg2e2 def2d2|e2c2A2 A2F2G2|A2B2A2 d4f2|a2f2b2 a2f2d2|fga2f2 g2e2c2|d2e2d2 d4FG|
A2B2A2 d4f2|a2f2b2 a2f2d2|efg2e2 def2d2|e2c2A2 A2F2G2|A2B2A2 d4f2|a2f2b2 a2f2d2|fga2f2 g2e2c2|d2e2d2 d4f2|
e2d2c2 B2A2G2|F4D2 G2F2E2|A4F2 B2c2d2|c2e2e2 e2g2f2|e2d2c2 B2A2G2|F4D2 G2F2E2|A2B2d2 efg2e2|f2d2d2 d4cd|
e2d2c2 B2A2G2|F4D2 G2F2E2|A4F2 B2c2d2|c2e2e2 e2g2f2|e2d2c2 B2A2G2|F4D2 G2F2E2|A2B2d2 efg2e2|f2d2d2 d4||
